src/apps/scalable/com.rtosta.zapzap.svg

<svg xmlns="http://www.w3.org/2000/svg" width="64" height="64" image-rendering="optimizeSpeed"><g transform="translate(-7.612 27.617)"><rect width="56.002" height="56.002" x="12.121" y="-23.507" fill="#5a5a5a" rx="13.002" ry="13.002"/><circle cx="40.141" cy="4.568" r="30.001" fill="none"/><path d="M12.119 18.522v1c0 7.203 5.8 13.004 13.004 13.004h29.996c7.203 0 13.004-5.8 13.004-13.004v-1c0 7.203-5.8 13.002-13.004 13.002H25.123c-7.187.016-13.018-5.814-13.004-13.002" opacity=".15"/><path fill="#fff" d="M12.119-9.472v-1c0-7.203 5.8-13.004 13.004-13.004h29.996c7.203 0 13.004 5.8 13.004 13.004v1c0-7.203-5.8-13.002-13.004-13.002H25.123c-7.187-.016-13.018 5.814-13.004 13.002" opacity=".15"/></g><path d="M95.253 1.187c-15.464 0-28 12.076-28 26.973a26.2 26.2 0 0 0 3.56 13.14l-2.151 8.227-.283 1.111c-.559 2.197 1.451 4.975 3.731 4.495l10.668-2.838a28.9 28.9 0 0 0 12.475 2.838c15.464 0 28-12.077 28-26.973 0-14.897-12.536-26.973-28-26.973" style="opacity:.2" transform="matrix(.74429 0 0 .7149 -38.485 12.42)"/><path d="M95.253.187c-15.464 0-28 12.076-28 26.973a26.2 26.2 0 0 0 3.56 13.14l-2.151 8.227-.283 1.111c-.559 2.197 1.451 4.975 3.731 4.495l10.668-2.838a28.9 28.9 0 0 0 12.475 2.838c15.464 0 28-12.077 28-26.973 0-14.897-12.536-26.973-28-26.973" style="fill:#e4e4e4" transform="matrix(.74429 0 0 .7149 -38.485 12.42)"/><path d="M95.253 5.187c-7.607.003-14.764 3.462-19.287 9.324l20.405.98-25.06 11.181q-.056.757-.058 1.515c0 12.703 10.745 23 24 23 8.636-.001 16.605-4.449 20.868-11.646l-20.365-.978 23.497-10.484c-.062-12.659-10.789-22.891-24-22.892" style="opacity:.1" transform="matrix(.74429 0 0 .7149 -38.485 12.42)"/><path d="M95.253 4.187c-7.607.003-14.764 3.462-19.287 9.324l20.405.98-25.06 11.181q-.056.757-.058 1.515c0 12.703 10.745 23 24 23 8.636-.001 16.605-4.449 20.868-11.646l-20.365-.978 23.497-10.484c-.062-12.659-10.789-22.891-24-22.892" style="fill:#2bae39" transform="matrix(.74429 0 0 .7149 -38.485 12.42)"/><path d="M95.253.187c-15.464 0-28 12.076-28 26.973 0 .147.013.293.015.44.311-14.637 12.716-26.413 27.985-26.413 15.289 0 27.708 11.808 27.986 26.473.003-.167.014-.332.014-.5 0-14.897-12.537-26.973-28-26.973M70.637 40.973l-1.974 7.554-.284 1.112a3.3 3.3 0 0 0-.054 1.295c.015-.1.03-.198.054-.295l.284-1.112 2.15-8.228c-.062-.107-.115-.218-.176-.326" style="fill:#fff;opacity:.2" transform="matrix(.74429 0 0 .7149 -38.485 12.42)"/></svg>

<?xml version="1.0" encoding="utf-8"?>
<svg xmlns="http://www.w3.org/2000/svg" width="64" height="64" image-rendering="optimizeSpeed">
  <g transform="matrix(1, 0, 0, 1, -7.612477, 27.6166)">
    <rect width="56.002" height="56.002" x="12.121" y="-23.507" fill="#5a5a5a" rx="13.002" ry="13.002"/>
    <circle cx="40.141" cy="4.568" r="30.001" fill="none"/>
    <path d="M 12.119 18.522 L 12.119 19.522 C 12.119 26.725 17.919 32.526 25.123 32.526 L 55.119 32.526 C 62.322 32.526 68.123 26.726 68.123 19.522 L 68.123 18.522 C 68.123 25.725 62.323 31.524 55.119 31.524 L 25.123 31.524 C 17.936 31.54 12.105 25.71 12.119 18.522" opacity=".15"/>
    <path fill="#fff" d="M 12.119 -9.472 L 12.119 -10.472 C 12.119 -17.675 17.919 -23.476 25.123 -23.476 L 55.119 -23.476 C 62.322 -23.476 68.123 -17.676 68.123 -10.472 L 68.123 -9.472 C 68.123 -16.675 62.323 -22.474 55.119 -22.474 L 25.123 -22.474 C 17.936 -22.49 12.105 -16.66 12.119 -9.472" opacity=".15"/>
  </g>
  <g transform="matrix(0.744286, 0, 0, 0.714895, -38.484772, 12.42059)" style="">
    <path style="opacity:0.2" d="M 95.253 1.187 C 79.789 1.187 67.253 13.263 67.253 28.16 C 67.257 32.761 68.483 37.284 70.813 41.3 L 68.662 49.527 L 68.379 50.638 C 67.82 52.835 69.83 55.613 72.11 55.133 L 72.11 55.133 L 82.778 52.295 C 86.652 54.158 90.923 55.129 95.253 55.133 C 110.717 55.133 123.253 43.056 123.253 28.16 C 123.253 13.263 110.717 1.187 95.253 1.187 Z"/>
    <path style="fill:#e4e4e4" d="M 95.253 0.187 C 79.789 0.187 67.253 12.263 67.253 27.16 C 67.257 31.761 68.483 36.284 70.813 40.3 L 68.662 48.527 L 68.379 49.638 C 67.82 51.835 69.83 54.613 72.11 54.133 L 72.11 54.133 L 82.778 51.295 C 86.652 53.158 90.923 54.129 95.253 54.133 C 110.717 54.133 123.253 42.056 123.253 27.16 C 123.253 12.263 110.717 0.187 95.253 0.187 Z"/>
    <path style="opacity:0.1" d="M 95.253 5.187 C 87.646 5.19 80.489 8.649 75.966 14.511 L 96.371 15.491 L 71.311 26.672 C 71.274 27.176 71.254 27.682 71.253 28.187 C 71.253 40.89 81.998 51.187 95.253 51.187 C 103.889 51.186 111.858 46.738 116.121 39.541 L 95.756 38.563 L 119.253 28.079 C 119.191 15.42 108.464 5.188 95.253 5.187 Z"/>
    <path style="fill:#2bae39" d="M 95.253 4.187 C 87.646 4.19 80.489 7.649 75.966 13.511 L 96.371 14.491 L 71.311 25.672 C 71.274 26.176 71.254 26.682 71.253 27.187 C 71.253 39.89 81.998 50.187 95.253 50.187 C 103.889 50.186 111.858 45.738 116.121 38.541 L 95.756 37.563 L 119.253 27.079 C 119.191 14.42 108.464 4.188 95.253 4.187 Z"/>
    <path style="fill:#ffffff;opacity:0.2" d="M 95.253 0.187 C 79.789 0.187 67.253 12.263 67.253 27.16 C 67.253 27.307 67.266 27.453 67.268 27.6 C 67.579 12.963 79.984 1.187 95.253 1.187 C 110.542 1.187 122.961 12.995 123.239 27.66 C 123.242 27.493 123.253 27.328 123.253 27.16 C 123.253 12.263 110.716 0.187 95.253 0.187 Z M 70.637 40.973 L 68.663 48.527 L 68.379 49.639 C 68.273 50.058 68.26 50.498 68.325 50.934 C 68.34 50.834 68.355 50.736 68.379 50.639 L 68.663 49.527 L 70.813 41.299 C 70.751 41.192 70.698 41.081 70.637 40.973 Z"/>
  </g>
</svg>
